Numix-GalliumOS/64/mimetypes/gddraw.svg

<?xml version="1.0" encoding="UTF-8" standalone="no"?>
<svg
   xmlns:dc="http://purl.org/dc/elements/1.1/"
   xmlns:cc="http://creativecommons.org/ns#"
   xmlns:rdf="http://www.w3.org/1999/02/22-rdf-syntax-ns#"
   xmlns:svg="http://www.w3.org/2000/svg"
   xmlns="http://www.w3.org/2000/svg"
   xmlns:sodipodi="http://sodipodi.sourceforge.net/DTD/sodipodi-0.dtd"
   xmlns:inkscape="http://www.inkscape.org/namespaces/inkscape"
   width="64px"
   height="64px"
   viewBox="0 0 64 64"
   version="1.1"
   id="svg2"
   inkscape:version="0.91 r13725"
   sodipodi:docname="gddraw.svg">
  <metadata
     id="metadata21">
    <rdf:RDF>
      <cc:Work
         rdf:about="">
        <dc:format>image/svg+xml</dc:format>
        <dc:type
           rdf:resource="http://purl.org/dc/dcmitype/StillImage" />
      </cc:Work>
    </rdf:RDF>
  </metadata>
  <defs
     id="defs19">
    <clipPath
       id="clipPath-201045889">
      <g
         transform="translate(0,-1004.3622)"
         id="g17">
        <path
           style="fill:#1890d0"
           inkscape:connector-curvature="0"
           d="m -24,13 c 0,1.105 -0.672,2 -1.5,2 -0.828,0 -1.5,-0.895 -1.5,-2 0,-1.105 0.672,-2 1.5,-2 0.828,0 1.5,0.895 1.5,2 z"
           transform="matrix(15.333333,0,0,11.5,414.99999,878.8622)"
           id="path19" />
      </g>
    </clipPath>
  </defs>
  <sodipodi:namedview
     pagecolor="#ffffff"
     bordercolor="#666666"
     borderopacity="1"
     objecttolerance="10"
     gridtolerance="10"
     guidetolerance="10"
     inkscape:pageopacity="0"
     inkscape:pageshadow="2"
     inkscape:window-width="1280"
     inkscape:window-height="998"
     id="namedview17"
     showgrid="true"
     inkscape:zoom="7.375"
     inkscape:cx="24.633458"
     inkscape:cy="23.545689"
     inkscape:window-x="0"
     inkscape:window-y="0"
     inkscape:window-maximized="1"
     inkscape:current-layer="svg2">
    <inkscape:grid
       type="xygrid"
       id="grid4169" />
  </sodipodi:namedview>
  <path
     inkscape:connector-curvature="0"
     id="path5"
     d="M 10.671875,0 C 9.296875,0 8,1.355469 8,2.789062 L 8,61.210938 C 8,62.566406 9.375,64 10.671875,64 l 42.65625,0 C 54.625,64 56,62.566406 56,61.210938 L 56,18 38,0 Z m 0,0"
     style="fill:#e73144;fill-opacity:1;fill-rule:nonzero;stroke:none" />
  <path
     inkscape:connector-curvature="0"
     id="path7"
     d="m 42,18 14,14 0,-14 z m 0,0"
     style="fill:#000000;fill-opacity:0.19607801;fill-rule:nonzero;stroke:none" />
  <path
     inkscape:connector-curvature="0"
     id="path9"
     d="M 38,0 55.984375,18 40.757812,18 C 39.410156,18 38,16.574219 38,15.226562 Z m 0,0"
     style="fill:#ffffff;fill-opacity:0.39215698;fill-rule:nonzero;stroke:none" />
  <g
     transform="matrix(1.3042662,0,0,1.2991372,1.3506823,3.530198)"
     id="g49">
    <g
       clip-path="url(#clipPath-201045889)"
       id="g51">
      <!-- color: #e73245 -->
      <g
         id="g53">
        <path
           style="fill:#f9f9f9;fill-opacity:0.74900004;fill-rule:nonzero;stroke:none"
           inkscape:connector-curvature="0"
           d="m 21,21 14,0 0,14 -14,0 m 0,-14"
           id="path55" />
        <path
           style="fill:#f9f9f9;fill-opacity:0.74900004;fill-rule:nonzero;stroke:none"
           inkscape:connector-curvature="0"
           d="m 29,20.5 c 0.035,3.059 -1.578,5.898 -4.223,7.438 -2.645,1.539 -5.91,1.539 -8.555,0 -2.641,-1.539 -4.254,-4.379 -4.223,-7.438 -0.031,-3.059 1.582,-5.898 4.223,-7.438 2.645,-1.539 5.91,-1.539 8.555,0 2.645,1.539 4.258,4.379 4.223,7.438 m 0,0"
           id="path57" />
      </g>
    </g>
  </g>
</svg>

<svg xmlns="http://www.w3.org/2000/svg" viewBox="0 0 64 64">
 <path d="m 10.672 0 c -1.375 0 -2.672 1.355 -2.672 2.789 l 0 58.42 c 0 1.355 1.375 2.789 2.672 2.789 l 42.656 0 c 1.297 0 2.672 -1.434 2.672 -2.789 l 0 -43.21 -18 -18 m -27.328 0" style="fill:#e73144;fill-opacity:1;stroke:none;fill-rule:nonzero"/>
 <path d="m 42 18 14 14 0 -14 z m 0 0" style="fill:#000;fill-opacity:0.196;stroke:none;fill-rule:nonzero"/>
 <path d="m 38 0 17.984 18 -15.227 0 c -1.348 0 -2.758 -1.426 -2.758 -2.773 m 0 -15.227" style="fill:#fff;fill-opacity:0.392;stroke:none;fill-rule:nonzero"/>
 <g transform="matrix(1.3042662,0,0,1.2991372,1.3506823,3.530198)">
  <!-- color: #e73245 -->
  <g>
   <path d="m 21 21 14 0 0 14 -14 0 m 0 -14" style="fill:#f9f9f9;fill-opacity:0.749;stroke:none;fill-rule:nonzero"/>
   <path d="m 29 20.5 c 0.035 3.059 -1.578 5.898 -4.223 7.438 -2.645 1.539 -5.91 1.539 -8.555 0 -2.641 -1.539 -4.254 -4.379 -4.223 -7.438 -0.031 -3.059 1.582 -5.898 4.223 -7.438 2.645 -1.539 5.91 -1.539 8.555 0 2.645 1.539 4.258 4.379 4.223 7.438 m 0 0" style="fill:#f9f9f9;fill-opacity:0.749;stroke:none;fill-rule:nonzero"/>
  </g>
 </g>
</svg>
